dist/img/svg/competency-5.svg

<svg width="81" height="81" viewBox="0 0 81 81" fill="none" xmlns="http://www.w3.org/2000/svg">
<path d="M3 59.82V64C3 66.7614 5.23857 69 8 69H33.3194H72.8889V69C75.1594 69 77 67.1594 77 64.8889V59.82M3 59.82V20C3 17.2386 5.23858 15 8 15H10.6176H14M3 59.82H44.5M77 59.82V20C77 17.2386 74.7614 15 72 15H70.4706H53.5M77 59.82H61" stroke="#F14D34" stroke-width="2.5"/>
<path d="M41 53H24.3071H19C16.2386 53 14 50.7614 14 48V12C14 9.23858 16.2386 7 19 7H24.3071H48C50.7614 7 53 9.23858 53 12V41.5" stroke="#F14D34" stroke-width="2.5"/>
<path d="M30.25 18V15C30.25 14.0335 31.0335 13.25 32 13.25H33.2286H42C42.9665 13.25 43.75 14.0335 43.75 15V18C43.75 18.9665 42.9665 19.75 42 19.75H33.2286H32C31.0335 19.75 30.25 18.9665 30.25 18Z" stroke="#F14D34" stroke-width="2.5"/>
<path d="M30.25 44V41C30.25 40.0335 31.0335 39.25 32 39.25H33.2286H42C42.9665 39.25 43.75 40.0335 43.75 41V44C43.75 44.9665 42.9665 45.75 42 45.75H33.2286H32C31.0335 45.75 30.25 44.9665 30.25 44Z" stroke="#F14D34" stroke-width="2.5"/>
<path d="M30.25 31V28C30.25 27.0335 31.0335 26.25 32 26.25H33.2286H42C42.9665 26.25 43.75 27.0335 43.75 28V31C43.75 31.9665 42.9665 32.75 42 32.75H33.2286H32C31.0335 32.75 30.25 31.9665 30.25 31Z" stroke="#F14D34" stroke-width="2.5"/>
<path d="M32 69V76H48V69" stroke="#F14D34" stroke-width="2.5"/>
<path d="M57 76H23" stroke="#F14D34" stroke-width="2.5"/>
<circle cx="52" cy="53" r="10.75" stroke="#050C33" stroke-width="2.5"/>
<path d="M48 53C48.4741 53 53.5309 53 56 53" stroke="#050C33" stroke-width="2.5"/>
<path d="M52 49C52 49.4741 52 54.5309 52 57" stroke="#050C33" stroke-width="2.5"/>
<path d="M18.5 14H25.5" stroke="#F14D34" stroke-width="3"/>
<path d="M18.5 19H22.5" stroke="#F14D34" stroke-width="3"/>
<path d="M18.5 27H25.5" stroke="#F14D34" stroke-width="3"/>
<path d="M18.5 32H22.5" stroke="#F14D34" stroke-width="3"/>
<path d="M18.5 40H25.5" stroke="#F14D34" stroke-width="3"/>
<path d="M18.5 45H22.5" stroke="#F14D34" stroke-width="3"/>
</svg>

<svg width="81" height="81" fill="none" xmlns="http://www.w3.org/2000/svg"><path d="M3 59.82V64a5 5 0 005 5h64.889v0A4.11 4.11 0 0077 64.889V59.82m-74 0V20a5 5 0 015-5h6M3 59.82h41.5m32.5 0V20a5 5 0 00-5-5H53.5M77 59.82H61M41 53H19a5 5 0 01-5-5V12a5 5 0 015-5h29a5 5 0 015 5v29.5" stroke="#F14D34" stroke-width="2.5"/><path d="M30.25 18v-3c0-.966.784-1.75 1.75-1.75h10c.967 0 1.75.784 1.75 1.75v3A1.75 1.75 0 0142 19.75H32A1.75 1.75 0 0130.25 18zm0 26v-3c0-.967.784-1.75 1.75-1.75h10c.967 0 1.75.783 1.75 1.75v3A1.75 1.75 0 0142 45.75H32A1.75 1.75 0 0130.25 44zm0-13v-3c0-.966.784-1.75 1.75-1.75h10c.967 0 1.75.784 1.75 1.75v3A1.75 1.75 0 0142 32.75H32A1.75 1.75 0 0130.25 31zM32 69v7h16v-7m9 7H23" stroke="#F14D34" stroke-width="2.5"/><circle cx="52" cy="53" r="10.75" stroke="#050C33" stroke-width="2.5"/><path d="M48 53h8m-4-4v8" stroke="#050C33" stroke-width="2.5"/><path d="M18.5 14h7m-7 5h4m-4 8h7m-7 5h4m-4 8h7m-7 5h4" stroke="#F14D34" stroke-width="3"/></svg>
